X:1
T:O sacrum convivium
T:Paolo Teodori 
T:O sacrum convivium
C:Paolo Teodori
%%score [ 1 2 3 4 ]
L:1/8
Q:1/4=120
M:4/4
K:Gmin
V:1 treble nm="Soprano" snm="S"
V:2 treble nm="Alto" snm="A"
V:3 treble-8 nm="Tenore" snm="T"
V:4 bass nm="Basso" snm="B"
V:1
 z4 (G4 | A2 A4 c2 | B3 B B4) | (B2 A2 G2 F2 | E3 E E2) (E2 | F2 G2 A2 c2 | e6 d2- | d2 c2 f2) e2 | %8
w: O|sa- crum con-|vi- vi- um|in quo Chri- stus-|su- mi- tur: re-|co- li- tur me-|mo- *|* ri- a _|
 (B2 c2) d2 f2 | g4 g4 | (G2 A2 B2 d2 | e4 e4) | (E2 G2 A2 c2 | d3 d d4) | %14
w: pas- si- o- nis|e- ius|pas- si- o- nis|e- ius;|mens im- ple- tur|gra- ti- a;|
 !tenuto!G2 !tenuto!G2 !tenuto!G2 !tenuto!G2 | !tenuto!A3 !tenuto!A A4 | (A2 A2 A2 c2 | B4 A4) | %18
w: et fu- tu- rae|glo- ri- ae|no- bis pi- gnus|da- *|
 G8- | G8- | G8 | z4 [Gd]2 [Gd]2 | [Gd]8 | [Gd]8 |] %24
w: tur|_||al- le-|lu-|ia.|
V:2
 z4 (G4 | G2 G4 G2 | G3 G G4) | (G2 F2) E2 D2 | E3 E E2 (E2 | F2) F2 F2 A2 | c2 B2 G2 B2 | %7
w: O|sa- crum con-|vi- vi- um|in quo Chri- stus|su- mi- tur: re-|co- li- tur me-|mo- * * *|
 A2 G2 F4 | (G2 G2 B2 B2) | B4 B4 | (G2 G2 G2 B2 | c4) c4 | (E2 E2 G2 G2 | B3 B B4) | %14
w: * ri- a|pas- si- o- nis|e- ius,|pas- si- o- nis|e- ius;|mens im- ple- tur|gra- ti- a|
 !tenuto!G2 !tenuto!G2 !tenuto!G2 !tenuto!G2 | !tenuto!G3 !tenuto!G !tenuto!G4 | (G2 G2) ^F2 G2 | %17
w: et fu- tu- rae|glo- ri- ae|no- bis pi- gnus|
 G4 ^F4 | z8 | (G2 F2 E2 D2) | (E4 C4 | D8- | D8 | D8) |] %24
w: da- tur.||Al- le- lu- ia,|al- le-|lu-||ia.|
V:3
 z4 (e4 | e2 e4 e2 | d3 d d4) | (d2 d2) d2 c2 | B3 B B2 (B2 | A2) B2 c2 f2 | g6 g2 | (e4 c4) | %8
w: O|sa- crum con-|vi- vi- um|in quo Chri- stus|su- mi- tur: re-|co- li- tur me-|mo- ri-|a _|
 (d2 d2 d2 d2 | g4 g4) | (B2 c2) d2 f2 | g4 g4 | (G2 B2) c2 e2 | d3 d d4 | %14
w: pas- si- o- nis|e- ius,|pas- si- o- nis|e- ius;|mens im- ple- tur|gra- ti- a|
 !tenuto!g2 !tenuto!g2 !tenuto!f2 !tenuto!f2 | !tenuto!e3 !tenuto!e e4 | (d2 d2) d2 e2 | d4 c4 | %18
w: et fu- tu- rae|glo- ri- ae|no- bis pi- gnus|da- tur.|
 z8 | (d2 c2 B2 A2 | B4 A4) | z4 (G2 A2) | =B8 | =B8 |] %24
w: |Al- * * le-|lu- ia,|al- le-|lu-|ia.|
V:4
 z8 | z8 | (G,,2 B,,2 D,2 G,2 | B,6 A,2 | G,3 G,) G,4 | z4 (F,4 | C,2 G,2 B,2 B,2 | C2 B,2) A,4 | %8
w: ||in quo Chri- stus|su- *|* mi- tur:|re-|co- li- tur me-|mo- ri- a|
 (G,2 G,2) F,2 F,2 | E,4 E,4 | (D,2 D,2 D,2 D,2 | C,4 C,4) | (C,2 C,2) C,2 C,2 | G,,3 G,, G,,4 | %14
w: pas- si- o- nis|e- ius,|pas- si- o- nis|e- ius;|mens im- ple- tur|gra- ti- a|
 z8 | z8 | (D,2 D,2) D,2 C,2 | D,4 D,4 | z8 | (B,2 A,2) G,2 F,2 | (E,4 E,4) | G,,8- | G,,8 | %23
w: ||no- bis- pi- gnus|da- tur.||Al- le- lu- ia,|al- le-|lu-||
 G,,8 |] %24
w: ia.|

